img/room.svg

<svg width="99" height="66" viewBox="0 0 99 66" fill="none" xmlns="http://www.w3.org/2000/svg">
<path d="M7 30.5291C5.33333 30.3625 2 30.8291 2 34.0291C2 36.2837 2 40.8216 2 44.5303C2 46.7395 3.79086 48.5291 6 48.5291V48.5291M7 30.5291V6.2399C7 5.76671 6.94317 5.29214 6.98258 4.8206C7.08368 3.61063 7.86559 2.02922 10.5 2.02922H88.2893C88.7625 2.02922 89.2371 1.97239 89.7086 2.01179C90.9186 2.1129 92.5 2.8948 92.5 5.52922V30.5291M7 30.5291H20M6 48.5291V53.5292C6 56.5668 8.46243 59.0292 11.5 59.0292V59.0292M6 48.5291H94M94 48.5291V48.5291C95.933 48.5291 97.5 46.9621 97.5 45.0291V34.0291C97.5 32.8625 96.6 30.5291 93 30.5291H92.5M94 48.5291V54.0292C94 56.7906 91.7614 59.0292 89 59.0292V59.0292H88M11.5 59.0292V65.0292M11.5 59.0292H88M88 59.0292V65.0292M92.5 30.5291H79.5M20 30.5291V30.5291C16.1711 26.7003 16.2716 20.4621 20.222 16.7587L22.2649 14.8434C26.0685 11.2776 31.9733 11.2323 35.8311 14.7394L38.1751 16.8703C42.1629 20.4956 42.3109 26.7183 38.5 30.5291V30.5291M20 30.5291H38.5M38.5 30.5291H60.5M60.5 30.5291V30.5291C56.4807 26.7779 56.5701 20.3792 60.6926 16.7417L63.2842 14.455C67.1069 11.0821 72.8549 11.1247 76.6271 14.554L79.175 16.8703C83.1629 20.4955 83.3109 26.7183 79.5 30.5291V30.5291M60.5 30.5291H79.5" stroke="#FFE602" stroke-width="3"/>
</svg>

<svg width="99" height="66" fill="none" xmlns="http://www.w3.org/2000/svg"><path d="M7 30.53c-1.667-.168-5 .3-5 3.5v10.5c0 2.21 1.79 4 4 4m1-18V6.24c0-.473-.057-.948-.017-1.42.1-1.21.883-2.79 3.517-2.79h77.79c.472 0 .947-.058 1.419-.018 1.21.1 2.791.883 2.791 3.517v25m-85.5 0h13m-14 18v5a5.5 5.5 0 0 0 5.5 5.5M6 48.53h88m0 0a3.5 3.5 0 0 0 3.5-3.5v-11c0-1.167-.9-3.5-4.5-3.5h-.5m1.5 18v5.5a5 5 0 0 1-5 5h-1m-76.5 0v6m0-6H88m0 0v6m4.5-34.5h-13m-59.5 0c-3.829-3.829-3.728-10.067.222-13.77l2.043-1.916a10 10 0 0 1 13.566-.104l2.344 2.131c3.988 3.626 4.136 9.848.325 13.66m-18.5 0h18.5m0 0h22m0 0c-4.02-3.752-3.93-10.15.193-13.788l2.591-2.287a10 10 0 0 1 13.343.099l2.548 2.316c3.988 3.625 4.136 9.848.325 13.66m-19 0h19" stroke="#E73087" stroke-width="3"/></svg>
